Newaita-dark/apps/64/ubiquity-kde.svg

<svg height="64pt" viewBox="0 0 64 64" width="64pt" xmlns="http://www.w3.org/2000/svg" xmlns:xlink="http://www.w3.org/1999/xlink"><linearGradient id="a"><stop offset="0" stop-opacity=".313726"/><stop offset=".222222" stop-opacity=".27451"/><stop offset="1" stop-opacity="0"/></linearGradient><radialGradient id="b" cx="450.908936" cy="189.579361" gradientTransform="matrix(.00000035 -.156265 -.281277 -.0000002 89.046304 127.190659)" gradientUnits="userSpaceOnUse" r="21.166656" xlink:href="#a"/><radialGradient id="c" cx="450.908936" cy="189.579361" gradientTransform="matrix(-.00000035 .156265 .281277 .0000002 -25.540237 -15.054964)" gradientUnits="userSpaceOnUse" r="21.166656" xlink:href="#a"/><radialGradient id="d" cx="450.908936" cy="189.579361" gradientTransform="matrix(-.00000035 -.156265 .281277 -.0000002 -25.540237 127.190659)" gradientUnits="userSpaceOnUse" r="21.166656" xlink:href="#a"/><radialGradient id="e" cx="450.908936" cy="189.579361" gradientTransform="matrix(.00000035 .156265 -.281277 .0000002 89.0463 -15.054965)" gradientUnits="userSpaceOnUse" r="21.166656" xlink:href="#a"/><linearGradient id="f" gradientTransform="matrix(.0267201 0 0 .125012 24.930772 26.877567)" gradientUnits="userSpaceOnUse" x1="255.323059" x2="255.323044" y1="233.5" y2="254.666656"><stop offset="0" stop-opacity=".27451"/><stop offset="1" stop-opacity="0"/></linearGradient><linearGradient id="g" gradientUnits="userSpaceOnUse" x1="31.753048" x2="31.753048" y1="5.79220799994" y2="56.067868"><stop offset="0" stop-color="#e0e0e0"/><stop offset="1" stop-color="#bdbdbd"/></linearGradient><linearGradient id="h" gradientUnits="userSpaceOnUse" x1="960.000112" x2="960.000112" y1="1255.11822698163" y2="615.118112"><stop offset="0" stop-color="#f5f5f5"/><stop offset="1" stop-color="#e0e0e0"/></linearGradient><linearGradient id="i" gradientUnits="userSpaceOnUse" x1="31.75305700013" x2="31.75305700013" y1="56.255308" y2="31.11747850002"><stop offset="0" stop-color="#5c6bc0"/><stop offset=".481141" stop-color="#7986cb"/><stop offset=".563308" stop-color="#9fa8da"/><stop offset=".849562" stop-color="#7986cb"/><stop offset=".954825" stop-color="#9fa8da"/><stop offset="1" stop-color="#7986cb"/></linearGradient><path d="m36.382812 56.066406h5.292969v-2.644531h-5.292969zm0 0" fill="url(#b)"/><path d="m27.121094 56.066406h-5.289063v2.648438h5.289063zm0 0" fill="url(#c)"/><path d="m27.121094 56.066406h-5.289063v-2.644531h5.289063zm0 0" fill="url(#d)"/><path d="m36.382812 56.066406h5.292969v2.648438h-5.292969zm0 0" fill="url(#e)"/><path d="m27.121094 55.40625h9.261718v3.308594h-9.261718zm0 0" fill="url(#f)"/><path d="m31.753906 5.792969c-13.925781 0-25.140625 11.210937-25.140625 25.136719 0 13.925781 11.214844 25.136718 25.140625 25.136718 13.925782 0 25.136719-11.210937 25.136719-25.136718 0-13.925782-11.210937-25.136719-25.136719-25.136719zm0 19.84375c2.929688 0 5.292969 2.363281 5.292969 5.292969 0 2.933593-2.363281 5.292968-5.292969 5.292968-2.933594 0-5.292968-2.359375-5.292968-5.292968 0-2.929688 2.359374-5.292969 5.292968-5.292969zm0 0" fill="url(#g)"/><path d="m31.753906 56.066406c-13.925781 0-25.140625-11.210937-25.140625-25.136718 0-.082032.003907-.164063.003907-.246094.128906 13.8125 11.292968 24.890625 25.136718 24.890625s25.003906-11.078125 25.136719-24.890625v.246094c0 13.925781-11.210937 25.136718-25.136719 25.136718zm0 0" fill-opacity=".196078"/><path d="m31.753906 5.792969c-13.925781 0-25.140625 11.210937-25.140625 25.136719 0 .082031.003907.164062.003907.246093.128906-13.8125 11.292968-24.890625 25.136718-24.890625s25.003906 11.078125 25.136719 24.890625c0-.082031 0-.164062 0-.246093 0-13.925782-11.210937-25.136719-25.136719-25.136719zm0 0" fill="#fff" fill-opacity=".588235"/><path d="m15.1875 13.730469c-1.410156 1.441406-2.632812 3.054687-3.644531 4.800781-1.003907 1.746094-1.789063 3.613281-2.335938 5.554688l5.359375 1.433593c.820313-2.964843 2.386719-5.671875 4.542969-7.867187zm4.914062 4.917969c-1.980468 2.019531-3.414062 4.507812-4.171874 7.238281l11.40625 3.054687c.222656-.722656.605468-1.386718 1.117187-1.941406zm16.792969 13.222656c-.109375.363281-.261719.710937-.453125 1.035156-.1875.328125-.410156.632812-.667968.90625l8.359374 8.363281c1.980469-2.027343 3.414063-4.519531 4.167969-7.246093zm12.773438 3.421875c-.824219 2.96875-2.386719 5.675781-4.542969 7.875l3.917969 3.914062c1.410156-1.4375 2.632812-3.054687 3.640625-4.800781 1.007812-1.746094 1.792968-3.609375 2.335937-5.550781zm0 0" fill="#fff" fill-opacity=".588235"/><path d="m31.753906 5.605469c-14.027344 0-25.328125 11.296875-25.328125 25.324219 0 14.027343 11.300781 25.324218 25.328125 25.324218s25.324219-11.296875 25.324219-25.324218c0-14.027344-11.296875-25.324219-25.324219-25.324219zm0 .375c13.824219 0 24.949219 11.125 24.949219 24.949219 0 13.824218-11.125 24.949218-24.949219 24.949218-13.828125 0-24.953125-11.125-24.953125-24.949218 0-13.824219 11.125-24.949219 24.953125-24.949219zm0 0" fill="#212121"/><path d="m960.026483 615.059407c-177.266546 0-320.048194 142.781648-320.048194 320.048194s142.781648 320.048194 320.048194 320.048194 319.930095-142.781648 319.930095-320.048194-142.663549-320.048194-319.930095-320.048194zm0 160.024097c88.574223 0 160.024097 71.449874 160.024097 160.024097 0 88.692323-71.449874 160.024097-160.024097 160.024097-88.692323 0-160.024097-71.331774-160.024097-160.024097 0-88.574223 71.331774-160.024097 160.024097-160.024097zm0 0" fill="url(#h)" stroke="#333" stroke-linecap="round" stroke-width="11.338583" transform="scale(.0330761)"/><path d="m30.429688 31.117188c-1.464844 0-2.644532 1.179687-2.644532 2.644531v7.941406h-3.96875c-2.261718 0-3.480468 2.648437-2.011718 4.367187l7.9375 9.261719c1.058593 1.230469 2.964843 1.230469 4.019531 0l7.9375-9.261719c1.472656-1.71875.253906-4.367187-2.007813-4.367187h-3.96875v-7.941406c0-1.464844-1.179687-2.644531-2.648437-2.644531zm0 0" fill="url(#i)"/><path d="m30.429688 31.117188c-1.464844 0-2.644532 1.179687-2.644532 2.644531v.496093c0-1.464843 1.179688-2.644531 2.644532-2.644531h2.644531c1.46875 0 2.648437 1.179688 2.648437 2.644531v-.496093c0-1.464844-1.179687-2.644531-2.648437-2.644531zm-6.613282 10.585937c-1.675781 0-2.777344 1.453125-2.640625 2.90625.121094-1.269531 1.15625-2.410156 2.640625-2.410156h3.96875v-.496094zm11.90625 0v.496094h3.96875c1.484375 0 2.519532 1.140625 2.636719 2.410156.140625-1.453125-.960937-2.90625-2.636719-2.90625zm0 0" fill="#fff" fill-opacity=".392157"/><path d="m21.191406 43.976562c-.101562.707032.074219 1.460938.613282 2.09375l7.9375 9.261719c1.058593 1.230469 2.964843 1.230469 4.019531 0l7.9375-9.261719c.542969-.632812.71875-1.386718.613281-2.09375-.070312.460938-.265625.917969-.613281 1.324219l-7.9375 9.261719c-1.054688 1.230469-2.960938 1.230469-4.019531 0l-7.9375-9.261719c-.34375-.40625-.542969-.863281-.613282-1.324219zm0 0" fill-opacity=".235294"/><path d="m30.464844 30.929688c-1.566406 0-2.835938 1.265624-2.835938 2.832031v7.753906h-3.78125c-2.40625 0-3.714844 2.847656-2.148437 4.675781l7.9375 9.261719c1.128906 1.316406 3.171875 1.316406 4.300781 0l7.941406-9.261719c1.5625-1.828125.253906-4.675781-2.152344-4.675781h-3.78125v-7.753906c0-1.566407-1.269531-2.832031-2.835937-2.832031zm0 .375h2.644531c1.367187 0 2.460937 1.09375 2.460937 2.457031v7.941406c0 .101563.082032.1875.1875.1875h3.96875c2.113282 0 3.242188 2.453125 1.867188 4.058594l-7.941406 9.261719c-.980469 1.144531-2.746094 1.144531-3.730469 0l-7.9375-9.261719c-1.378906-1.605469-.25-4.058594 1.863281-4.058594h3.96875c.105469 0 .191406-.085937.191406-.1875v-7.941406c0-1.363281 1.089844-2.457031 2.457032-2.457031zm0 0" fill="#212121"/></svg>

<?xml version="1.0" encoding="UTF-8"?>
<svg xmlns="http://www.w3.org/2000/svg" xmlns:xlink="http://www.w3.org/1999/xlink" width="64pt" height="64pt" viewBox="0 0 64 64" version="1.1">
<defs>
<radialGradient id="radial0" gradientUnits="userSpaceOnUse" cx="450.908936" cy="189.579361" fx="450.908936" fy="189.579361" r="21.166656" gradientTransform="matrix(0.000000348341,-0.156265,-0.281277,-0.000000203077,89.046304,127.190659)">
<stop offset="0" style="stop-color:rgb(0%,0%,0%);stop-opacity:0.313726;"/>
<stop offset="0.222222" style="stop-color:rgb(0%,0%,0%);stop-opacity:0.27451;"/>
<stop offset="1" style="stop-color:rgb(0%,0%,0%);stop-opacity:0;"/>
</radialGradient>
<radialGradient id="radial1" gradientUnits="userSpaceOnUse" cx="450.908936" cy="189.579361" fx="450.908936" fy="189.579361" r="21.166656" gradientTransform="matrix(-0.000000348341,0.156265,0.281277,0.000000203077,-25.540237,-15.054964)">
<stop offset="0" style="stop-color:rgb(0%,0%,0%);stop-opacity:0.313726;"/>
<stop offset="0.222222" style="stop-color:rgb(0%,0%,0%);stop-opacity:0.27451;"/>
<stop offset="1" style="stop-color:rgb(0%,0%,0%);stop-opacity:0;"/>
</radialGradient>
<radialGradient id="radial2" gradientUnits="userSpaceOnUse" cx="450.908936" cy="189.579361" fx="450.908936" fy="189.579361" r="21.166656" gradientTransform="matrix(-0.000000348341,-0.156265,0.281277,-0.000000203077,-25.540237,127.190659)">
<stop offset="0" style="stop-color:rgb(0%,0%,0%);stop-opacity:0.313726;"/>
<stop offset="0.222222" style="stop-color:rgb(0%,0%,0%);stop-opacity:0.27451;"/>
<stop offset="1" style="stop-color:rgb(0%,0%,0%);stop-opacity:0;"/>
</radialGradient>
<radialGradient id="radial3" gradientUnits="userSpaceOnUse" cx="450.908936" cy="189.579361" fx="450.908936" fy="189.579361" r="21.166656" gradientTransform="matrix(0.000000348341,0.156265,-0.281277,0.000000203077,89.0463,-15.054965)">
<stop offset="0" style="stop-color:rgb(0%,0%,0%);stop-opacity:0.313726;"/>
<stop offset="0.222222" style="stop-color:rgb(0%,0%,0%);stop-opacity:0.27451;"/>
<stop offset="1" style="stop-color:rgb(0%,0%,0%);stop-opacity:0;"/>
</radialGradient>
<linearGradient id="linear0" gradientUnits="userSpaceOnUse" x1="255.323059" y1="233.5" x2="255.323044" y2="254.666656" gradientTransform="matrix(0.0267201,0,0,0.125012,24.930772,26.877567)">
<stop offset="0" style="stop-color:rgb(0%,0%,0%);stop-opacity:0.27451;"/>
<stop offset="1" style="stop-color:rgb(0%,0%,0%);stop-opacity:0;"/>
</linearGradient>
<linearGradient id="linear1" gradientUnits="userSpaceOnUse" x1="254" y1="-168.666672" x2="254" y2="233.5" gradientTransform="matrix(0.125012,0,0,0.125012,0,26.877566)">
<stop offset="0" style="stop-color:rgb(87.843138%,87.843138%,87.843138%);stop-opacity:1;"/>
<stop offset="1" style="stop-color:rgb(74.117649%,74.117649%,74.117649%);stop-opacity:1;"/>
</linearGradient>
<linearGradient id="linear2" gradientUnits="userSpaceOnUse" x1="254" y1="117.083344" x2="254" y2="-52.25" gradientTransform="matrix(3.779528,0,0,3.779528,0,812.59845)">
<stop offset="0" style="stop-color:rgb(96.078432%,96.078432%,96.078432%);stop-opacity:1;"/>
<stop offset="1" style="stop-color:rgb(87.843138%,87.843138%,87.843138%);stop-opacity:1;"/>
</linearGradient>
<linearGradient id="linear3" gradientUnits="userSpaceOnUse" x1="359.833344" y1="233.5" x2="359.833344" y2="32.416668" gradientTransform="matrix(0.125012,0,0,0.125012,-13.230429,27.065006)">
<stop offset="0" style="stop-color:rgb(36.078432%,41.960785%,75.294119%);stop-opacity:1;"/>
<stop offset="0.481141" style="stop-color:rgb(47.450981%,52.549022%,79.607844%);stop-opacity:1;"/>
<stop offset="0.563308" style="stop-color:rgb(62.352943%,65.882355%,85.490197%);stop-opacity:1;"/>
<stop offset="0.849562" style="stop-color:rgb(47.450981%,52.549022%,79.607844%);stop-opacity:1;"/>
<stop offset="0.954825" style="stop-color:rgb(62.352943%,65.882355%,85.490197%);stop-opacity:1;"/>
<stop offset="1" style="stop-color:rgb(47.450981%,52.549022%,79.607844%);stop-opacity:1;"/>
</linearGradient>
</defs>
<g id="surface1">
<path style=" stroke:none;fill-rule:nonzero;fill:url(#radial0);" d="M 36.382812 56.066406 L 41.675781 56.066406 L 41.675781 53.421875 L 36.382812 53.421875 Z M 36.382812 56.066406 "/>
<path style=" stroke:none;fill-rule:nonzero;fill:url(#radial1);" d="M 27.121094 56.066406 L 21.832031 56.066406 L 21.832031 58.714844 L 27.121094 58.714844 Z M 27.121094 56.066406 "/>
<path style=" stroke:none;fill-rule:nonzero;fill:url(#radial2);" d="M 27.121094 56.066406 L 21.832031 56.066406 L 21.832031 53.421875 L 27.121094 53.421875 Z M 27.121094 56.066406 "/>
<path style=" stroke:none;fill-rule:nonzero;fill:url(#radial3);" d="M 36.382812 56.066406 L 41.675781 56.066406 L 41.675781 58.714844 L 36.382812 58.714844 Z M 36.382812 56.066406 "/>
<path style=" stroke:none;fill-rule:nonzero;fill:url(#linear0);" d="M 27.121094 55.40625 L 36.382812 55.40625 L 36.382812 58.714844 L 27.121094 58.714844 Z M 27.121094 55.40625 "/>
<path style=" stroke:none;fill-rule:nonzero;fill:url(#linear1);" d="M 31.753906 5.792969 C 17.828125 5.792969 6.613281 17.003906 6.613281 30.929688 C 6.613281 44.855469 17.828125 56.066406 31.753906 56.066406 C 45.679688 56.066406 56.890625 44.855469 56.890625 30.929688 C 56.890625 17.003906 45.679688 5.792969 31.753906 5.792969 Z M 31.753906 25.636719 C 34.683594 25.636719 37.046875 28 37.046875 30.929688 C 37.046875 33.863281 34.683594 36.222656 31.753906 36.222656 C 28.820312 36.222656 26.460938 33.863281 26.460938 30.929688 C 26.460938 28 28.820312 25.636719 31.753906 25.636719 Z M 31.753906 25.636719 "/>
<path style=" stroke:none;fill-rule:nonzero;fill:rgb(0%,0%,0%);fill-opacity:0.196078;" d="M 31.753906 56.066406 C 17.828125 56.066406 6.613281 44.855469 6.613281 30.929688 C 6.613281 30.847656 6.617188 30.765625 6.617188 30.683594 C 6.746094 44.496094 17.910156 55.574219 31.753906 55.574219 C 45.597656 55.574219 56.757812 44.496094 56.890625 30.683594 C 56.890625 30.765625 56.890625 30.847656 56.890625 30.929688 C 56.890625 44.855469 45.679688 56.066406 31.753906 56.066406 Z M 31.753906 56.066406 "/>
<path style=" stroke:none;fill-rule:nonzero;fill:rgb(100%,100%,100%);fill-opacity:0.588235;" d="M 31.753906 5.792969 C 17.828125 5.792969 6.613281 17.003906 6.613281 30.929688 C 6.613281 31.011719 6.617188 31.09375 6.617188 31.175781 C 6.746094 17.363281 17.910156 6.285156 31.753906 6.285156 C 45.597656 6.285156 56.757812 17.363281 56.890625 31.175781 C 56.890625 31.09375 56.890625 31.011719 56.890625 30.929688 C 56.890625 17.003906 45.679688 5.792969 31.753906 5.792969 Z M 31.753906 5.792969 "/>
<path style=" stroke:none;fill-rule:nonzero;fill:rgb(100%,100%,100%);fill-opacity:0.588235;" d="M 15.1875 13.730469 C 13.777344 15.171875 12.554688 16.785156 11.542969 18.53125 C 10.539062 20.277344 9.753906 22.144531 9.207031 24.085938 L 14.566406 25.519531 C 15.386719 22.554688 16.953125 19.847656 19.109375 17.652344 Z M 20.101562 18.648438 C 18.121094 20.667969 16.6875 23.15625 15.929688 25.886719 L 27.335938 28.941406 C 27.558594 28.21875 27.941406 27.554688 28.453125 27 Z M 36.894531 31.871094 C 36.785156 32.234375 36.632812 32.582031 36.441406 32.90625 C 36.253906 33.234375 36.03125 33.539062 35.773438 33.8125 L 44.132812 42.175781 C 46.113281 40.148438 47.546875 37.65625 48.300781 34.929688 Z M 49.667969 35.292969 C 48.84375 38.261719 47.28125 40.96875 45.125 43.167969 L 49.042969 47.082031 C 50.453125 45.644531 51.675781 44.027344 52.683594 42.28125 C 53.691406 40.535156 54.476562 38.671875 55.019531 36.730469 Z M 49.667969 35.292969 "/>
<path style=" stroke:none;fill-rule:nonzero;fill:rgb(12.941177%,12.941177%,12.941177%);fill-opacity:1;" d="M 31.753906 5.605469 C 17.726562 5.605469 6.425781 16.902344 6.425781 30.929688 C 6.425781 44.957031 17.726562 56.253906 31.753906 56.253906 C 45.78125 56.253906 57.078125 44.957031 57.078125 30.929688 C 57.078125 16.902344 45.78125 5.605469 31.753906 5.605469 Z M 31.753906 5.980469 C 45.578125 5.980469 56.703125 17.105469 56.703125 30.929688 C 56.703125 44.753906 45.578125 55.878906 31.753906 55.878906 C 17.925781 55.878906 6.800781 44.753906 6.800781 30.929688 C 6.800781 17.105469 17.925781 5.980469 31.753906 5.980469 Z M 31.753906 5.980469 "/>
<path style="fill-rule:nonzero;fill:url(#linear2);stroke-width:11.338583;stroke-linecap:round;stroke-linejoin:miter;stroke:rgb(20%,20%,20%);stroke-opacity:1;stroke-miterlimit:4;" d="M 960.026483 615.059407 C 782.759937 615.059407 639.978289 757.841055 639.978289 935.107601 C 639.978289 1112.374147 782.759937 1255.155795 960.026483 1255.155795 C 1137.293029 1255.155795 1279.956578 1112.374147 1279.956578 935.107601 C 1279.956578 757.841055 1137.293029 615.059407 960.026483 615.059407 Z M 960.026483 775.083504 C 1048.600706 775.083504 1120.05058 846.533378 1120.05058 935.107601 C 1120.05058 1023.799924 1048.600706 1095.131698 960.026483 1095.131698 C 871.33416 1095.131698 800.002386 1023.799924 800.002386 935.107601 C 800.002386 846.533378 871.33416 775.083504 960.026483 775.083504 Z M 960.026483 775.083504 " transform="matrix(0.0330761,0,0,0.0330761,0,0)"/>
<path style=" stroke:none;fill-rule:nonzero;fill:url(#linear3);" d="M 30.429688 31.117188 C 28.964844 31.117188 27.785156 32.296875 27.785156 33.761719 L 27.785156 41.703125 L 23.816406 41.703125 C 21.554688 41.703125 20.335938 44.351562 21.804688 46.070312 L 29.742188 55.332031 C 30.800781 56.5625 32.707031 56.5625 33.761719 55.332031 L 41.699219 46.070312 C 43.171875 44.351562 41.953125 41.703125 39.691406 41.703125 L 35.722656 41.703125 L 35.722656 33.761719 C 35.722656 32.296875 34.542969 31.117188 33.074219 31.117188 Z M 30.429688 31.117188 "/>
<path style=" stroke:none;fill-rule:nonzero;fill:rgb(100%,100%,100%);fill-opacity:0.392157;" d="M 30.429688 31.117188 C 28.964844 31.117188 27.785156 32.296875 27.785156 33.761719 L 27.785156 34.257812 C 27.785156 32.792969 28.964844 31.613281 30.429688 31.613281 L 33.074219 31.613281 C 34.542969 31.613281 35.722656 32.792969 35.722656 34.257812 L 35.722656 33.761719 C 35.722656 32.296875 34.542969 31.117188 33.074219 31.117188 Z M 23.816406 41.703125 C 22.140625 41.703125 21.039062 43.15625 21.175781 44.609375 C 21.296875 43.339844 22.332031 42.199219 23.816406 42.199219 L 27.785156 42.199219 L 27.785156 41.703125 Z M 35.722656 41.703125 L 35.722656 42.199219 L 39.691406 42.199219 C 41.175781 42.199219 42.210938 43.339844 42.328125 44.609375 C 42.46875 43.15625 41.367188 41.703125 39.691406 41.703125 Z M 35.722656 41.703125 "/>
<path style=" stroke:none;fill-rule:nonzero;fill:rgb(0%,0%,0%);fill-opacity:0.235294;" d="M 21.191406 43.976562 C 21.089844 44.683594 21.265625 45.4375 21.804688 46.070312 L 29.742188 55.332031 C 30.800781 56.5625 32.707031 56.5625 33.761719 55.332031 L 41.699219 46.070312 C 42.242188 45.4375 42.417969 44.683594 42.3125 43.976562 C 42.242188 44.4375 42.046875 44.894531 41.699219 45.300781 L 33.761719 54.5625 C 32.707031 55.792969 30.800781 55.792969 29.742188 54.5625 L 21.804688 45.300781 C 21.460938 44.894531 21.261719 44.4375 21.191406 43.976562 Z M 21.191406 43.976562 "/>
<path style=" stroke:none;fill-rule:nonzero;fill:rgb(12.941177%,12.941177%,12.941177%);fill-opacity:1;" d="M 30.464844 30.929688 C 28.898438 30.929688 27.628906 32.195312 27.628906 33.761719 L 27.628906 41.515625 L 23.847656 41.515625 C 21.441406 41.515625 20.132812 44.363281 21.699219 46.191406 L 29.636719 55.453125 C 30.765625 56.769531 32.808594 56.769531 33.9375 55.453125 L 41.878906 46.191406 C 43.441406 44.363281 42.132812 41.515625 39.726562 41.515625 L 35.945312 41.515625 L 35.945312 33.761719 C 35.945312 32.195312 34.675781 30.929688 33.109375 30.929688 Z M 30.464844 31.304688 L 33.109375 31.304688 C 34.476562 31.304688 35.570312 32.398438 35.570312 33.761719 L 35.570312 41.703125 C 35.570312 41.804688 35.652344 41.890625 35.757812 41.890625 L 39.726562 41.890625 C 41.839844 41.890625 42.96875 44.34375 41.59375 45.949219 L 33.652344 55.210938 C 32.671875 56.355469 30.90625 56.355469 29.921875 55.210938 L 21.984375 45.949219 C 20.605469 44.34375 21.734375 41.890625 23.847656 41.890625 L 27.816406 41.890625 C 27.921875 41.890625 28.007812 41.804688 28.007812 41.703125 L 28.007812 33.761719 C 28.007812 32.398438 29.097656 31.304688 30.464844 31.304688 Z M 30.464844 31.304688 "/>
</g>
</svg>
